public/svg/the.svg

<svg width="150" height="158" viewBox="0 0 150 158" fill="none" xmlns="http://www.w3.org/2000/svg">
<g clip-path="url(#clip0)">
<path d="M130.868 119.502C125.414 126.852 114.209 143.424 108.706 124.757C107.494 119.936 107.112 114.944 107.576 109.995C115.464 102.992 122.371 94.7117 121.737 84.399C121.513 80.9779 120.495 78.2014 116.917 77.4825C110.607 76.305 106.023 82.7628 104.085 87.6217C101.166 94.9472 100.358 103.971 100.01 111.891C98.234 113.465 96.5073 115.04 94.8924 116.676C94.4079 107.119 93.8116 97.5749 94.5694 88.0059C94.7557 85.6137 91.8613 82.7504 89.6004 84.8328C83.4273 90.8223 78.6995 98.1337 75.7744 106.214C75.6874 105.421 75.6129 104.615 75.5135 103.822C74.7185 97.4634 73.7371 91.1419 73.029 84.7708C75.3624 79.8652 77.3749 74.814 79.0538 69.6488C80.147 66.265 89.0663 37.7811 76.2588 44.0902C72.3334 46.0238 70.1967 52.1098 69.4514 56.0886C67.7122 65.3477 68.6812 75.834 69.8489 85.5641C68.3145 88.8957 66.5591 92.1215 64.5942 95.2199C64.3458 93.3358 64.0973 91.5013 63.8862 89.6297C62.0228 73.6648 58.706 57.2414 57.675 41.0038C67.9855 38.624 77.0166 33.3684 85.2526 26.5635C92.9545 20.1925 101.625 11.5903 102.159 1.04209C102.196 0.829682 102.154 0.611371 102.041 0.427465C101.929 0.243559 101.753 0.106474 101.547 0.0415198C101.341 -0.0234347 101.119 -0.0118735 100.921 0.074069C100.723 0.160012 100.563 0.314532 100.47 0.509104C91.7743 15.8914 75.0042 29.2285 57.352 33.5172C57.352 31.6083 57.352 29.6871 57.352 27.7907C57.4514 24.0721 52.383 24.5927 51.4389 27.5056C50.7253 29.8501 50.2671 32.2646 50.0725 34.7071C32.0352 36.5664 10.5942 30.5919 1.62528 14.0693C1.11596 13.1397 -0.213229 13.9825 0.0600627 14.8998C5.98553 35.5748 29.9607 43.929 50.0104 42.1442C50.3458 47.8831 51.3893 53.6592 52.147 59.1378C53.6129 69.81 55.7371 80.3334 58.0973 90.8444C58.9048 94.4514 59.6874 98.1203 60.3706 101.802C55.116 109.846 49.6874 117.754 47.1408 126.815C47.0663 127.075 47.4886 127.286 47.6377 127.05C52.1719 119.985 56.7433 113.118 61.0911 106.152C62.2791 113.08 62.4923 120.139 61.7247 127.125C61.1408 131.624 60.1098 138.429 56.7557 141.825C49.6874 148.742 39.5383 137.586 43.824 131.835C43.8594 131.79 43.8842 131.737 43.8965 131.681C43.9089 131.625 43.9085 131.567 43.8954 131.511C43.8823 131.455 43.8568 131.403 43.8208 131.358C43.7848 131.313 43.7392 131.277 43.6874 131.252C36.7309 128.563 42.5321 142.569 43.8986 144.379C50.6439 153.278 59.7744 146.25 63.116 138.404C68.2837 126.282 66.8427 112.486 65.1656 99.4094C66.971 96.3354 68.6977 93.216 70.3458 90.0511L70.6439 92.5301C72.2837 105.954 73.6129 119.39 74.7806 132.864C75.4514 140.573 73.675 150.837 78.5073 157.406C79.6501 158.955 81.7744 157.319 80.8924 155.708C77.4514 149.411 78.7433 141.255 78.1843 134.302C77.6998 128.104 77.2402 121.906 76.6812 115.709C78.8924 111.296 81.7122 107.33 84.3582 103.103C85.7495 100.884 86.8427 98.5913 88.1967 96.3974C88.3972 105.91 89.098 115.405 90.2961 124.844C90.9421 130.025 91.7868 138.999 97.824 140.697C99.2899 141.106 100.309 139.458 99.9483 138.218L99.6004 137.14C99.5343 136.961 99.4329 136.796 99.3023 136.656C99.1717 136.517 99.0145 136.404 98.8399 136.326C98.6652 136.247 98.4766 136.204 98.2851 136.199C98.0937 136.194 97.9031 136.228 97.7247 136.297C94.942 133.434 94.942 125.241 94.9296 120.444C96.4576 119.204 98.1222 117.828 99.8986 116.44C99.9979 123.183 101.389 130.286 106.222 135.182C118.197 147.316 129.687 131.946 132.209 120.134C132.25 119.965 132.231 119.787 132.156 119.631C132.08 119.474 131.953 119.348 131.796 119.274C131.638 119.199 131.46 119.182 131.291 119.223C131.122 119.265 130.972 119.363 130.868 119.502ZM109.75 93.906C110.097 91.9476 113.476 77.1231 117.923 83.9899C119.054 85.75 116.793 92.2574 116.01 93.906C114.015 97.8841 111.328 101.477 108.072 104.516C108.557 100.773 109.166 97.1287 109.737 93.9184L109.75 93.906ZM72.1967 75.6852C71.8116 68.62 69.7122 57.4645 74.0973 51.1182C75.029 49.7671 78.3334 45.8999 80.4452 48.3913C81.0166 49.0606 80.2837 52.2461 80.1594 53.2006C79.8288 55.5062 79.3643 57.7907 78.7681 60.0426C77.1083 66.6092 74.9956 73.0535 72.4452 79.3294C72.3458 78.1064 72.263 76.8917 72.1967 75.6852Z" fill="#3A3C51"/>
<path d="M49.35 91.9463C48.1947 86.3437 38.8158 82.588 34.0084 81.1254C29.9587 79.8859 20.2071 80.1462 23.909 86.9139C24.232 87.4965 25.0146 87.2362 25.2879 86.7899C28.6916 81.0634 43.4742 91.5249 47.822 92.9627C48.4431 93.2478 49.5363 92.8263 49.35 91.9463Z" fill="#3A3C51"/>
<path d="M44.1104 99.0865C39.1415 95.2688 29.2036 99.1981 27.862 105.185C27.832 105.364 27.8493 105.547 27.9123 105.717C27.9753 105.888 28.0817 106.038 28.221 106.155C28.3603 106.271 28.5277 106.349 28.7066 106.381C28.8854 106.414 29.0696 106.398 29.2408 106.338C31.7253 105.284 33.6756 103.301 36.1974 102.284C38.7191 101.268 41.2905 101.28 43.8495 100.611C43.9944 100.554 44.122 100.46 44.2201 100.34C44.3182 100.219 44.3835 100.075 44.4098 99.922C44.436 99.7688 44.4222 99.6115 44.3698 99.4651C44.3173 99.3188 44.228 99.1884 44.1104 99.0865Z" fill="#3A3C51"/>
<path d="M41.8006 107.715C37.4528 107.876 31.428 112.958 33.3534 117.631C33.4031 117.745 33.4803 117.846 33.5782 117.923C33.6761 118.001 33.7916 118.053 33.9146 118.075C34.0376 118.097 34.1641 118.088 34.2829 118.05C34.4017 118.011 34.5092 117.944 34.5957 117.854C35.8379 116.23 36.5957 114.297 37.9621 112.735C39.3942 111.264 40.7303 109.703 41.9621 108.062C41.9805 108.029 41.9909 107.993 41.9924 107.955C41.9939 107.918 41.9864 107.881 41.9706 107.847C41.9548 107.813 41.9312 107.783 41.9016 107.76C41.8721 107.737 41.8374 107.722 41.8006 107.715Z" fill="#3A3C51"/>
<path d="M149.898 83.3455C148.457 79.627 143.525 80.2964 140.469 81.102C137.662 81.8457 132.444 83.6802 132.047 87.1013C132.019 87.2946 132.042 87.4918 132.112 87.6739C132.183 87.856 132.299 88.017 132.45 88.1414C132.601 88.2658 132.781 88.3495 132.974 88.3844C133.166 88.4193 133.365 88.4043 133.55 88.3408C135.935 87.5971 138.022 86.0477 140.481 85.3288C142.963 84.577 145.619 84.6247 148.071 85.4651C149.289 85.8741 150.307 84.3991 149.898 83.3455Z" fill="#3A3C51"/>
<path d="M148.197 96.6824C145.974 92.0838 135.775 90.8319 134.433 96.6824C134.417 96.7739 134.428 96.8684 134.465 96.9537C134.502 97.039 134.564 97.1115 134.642 97.1619C134.721 97.2122 134.812 97.2383 134.905 97.2368C134.999 97.2353 135.089 97.2063 135.166 97.1534C137.974 95.071 141.675 96.4221 144.396 97.9343C145.228 98.3929 146.644 99.4465 147.663 99.0126C148.682 98.5788 148.607 97.5004 148.197 96.6824Z" fill="#3A3C51"/>
<path d="M145.04 106.846C143.152 102.223 135.45 101.318 131.252 102.26C130.655 102.396 130.854 103.227 131.339 103.351C133.754 103.897 136.122 104.635 138.419 105.557C140.281 106.495 142.233 107.243 144.245 107.788C144.369 107.811 144.496 107.802 144.615 107.76C144.733 107.718 144.838 107.645 144.919 107.549C145 107.453 145.054 107.338 145.075 107.214C145.096 107.09 145.084 106.963 145.04 106.846Z" fill="#3A3C51"/>
</g>
<defs>
<clipPath id="clip0">
<rect width="150" height="158" fill="white"/>
</clipPath>
</defs>
</svg>

<svg xmlns="http://www.w3.org/2000/svg" width="150" height="158" fill="none" xmlns:v="https://vecta.io/nano"><g clip-path="url(#A)" fill="#3a3c51"><path d="M130.868 119.502c-5.454 7.35-16.66 23.922-22.162 5.255a43.78 43.78 0 0 1-1.13-14.762c7.888-7.003 14.795-15.283 14.16-25.596-.224-3.42-1.242-6.198-4.82-6.916-6.3-1.177-10.894 5.28-12.832 10.14-2.92 7.325-3.727 16.35-4.075 24.27-1.776 1.574-3.503 3.15-5.118 4.785-.484-9.557-1.08-19.1-.323-28.67.186-2.392-2.708-5.255-4.97-3.173a56.67 56.67 0 0 0-13.826 21.381l-.26-2.392-2.484-19.05a125.7 125.7 0 0 0 6.025-15.122c1.093-3.384 10.013-31.868-2.795-25.56-3.925 1.934-6.062 8.02-6.807 11.998-1.74 9.26-.77 19.745.397 29.475-1.534 3.332-3.3 6.557-5.255 9.656l-.708-5.6c-1.863-15.965-5.18-32.388-6.2-48.626 10.3-2.38 19.342-7.635 27.578-14.44 7.702-6.37 16.372-14.973 16.906-25.52.037-.212-.005-.43-.118-.615s-.288-.32-.494-.386a.89.89 0 0 0-.626.033c-.198.086-.358.24-.45.435C91.774 15.9 75.004 29.23 57.352 33.517V27.8c.1-3.72-4.97-3.198-5.913-.285a34.01 34.01 0 0 0-1.366 7.201c-18.037 1.86-39.478-4.115-48.447-20.638-.5-.93-1.84-.087-1.565.83C5.986 35.575 29.96 43.93 50 42.144c.335 5.74 1.38 11.515 2.137 16.994 1.466 10.672 3.6 21.196 5.95 31.707.808 3.607 1.6 7.276 2.273 10.958-5.255 8.044-10.683 15.952-13.23 25.013-.075.26.348.47.497.235l13.453-20.898a75.38 75.38 0 0 1 .634 20.973c-.584 4.5-1.615 11.304-4.97 14.7-7.068 6.917-17.217-4.24-12.932-10a.4.4 0 0 0 .073-.154c.013-.056.012-.114-.001-.17s-.04-.108-.075-.153-.082-.08-.133-.106c-6.956-2.7-1.155 11.317.2 13.127 6.745 8.9 15.876 1.87 19.217-5.975 5.168-12.122 3.727-25.918 2.05-38.995a209.99 209.99 0 0 0 5.18-9.358l.298 2.48c1.64 13.424 2.97 26.86 4.137 40.334.67 7.7-1.106 17.973 3.727 24.542 1.143 1.55 3.267-.087 2.385-1.698-3.44-6.297-2.15-14.453-2.708-21.406L76.68 115.7c2.2-4.413 5.03-8.38 7.677-12.606 1.4-2.22 2.484-4.512 3.84-6.706a271.31 271.31 0 0 0 2.099 28.447c.646 5.18 1.5 14.155 7.528 15.853 1.466.4 2.485-1.24 2.124-2.48l-.348-1.078c-.066-.18-.167-.344-.298-.484a1.44 1.44 0 0 0-.462-.33 1.45 1.45 0 0 0-1.115-.029c-2.783-2.863-2.783-11.056-2.795-15.853l4.97-4.004c.1 6.743 1.5 13.846 6.323 18.742 11.975 12.134 23.465-3.236 25.987-15.048a.75.75 0 0 0-.053-.503.76.76 0 0 0-.865-.408c-.17.042-.32.14-.423.28zM109.75 93.906c.347-1.958 3.726-16.783 8.173-9.916 1.13 1.76-1.13 8.267-1.913 9.916a37.52 37.52 0 0 1-7.938 10.61c.485-3.743 1.094-7.387 1.665-10.598l.013-.012zm-37.553-18.22c-.385-7.065-2.485-18.22 1.9-24.567.932-1.35 4.236-5.218 6.348-2.727.57.67-.162 3.855-.286 4.8a60.02 60.02 0 0 1-1.391 6.842 146.88 146.88 0 0 1-6.323 19.287l-.248-3.644zM49.35 91.946c-1.155-5.603-10.534-9.358-15.342-10.82-4.05-1.24-13.8-.98-10.1 5.788.323.583 1.106.322 1.38-.124 3.404-5.727 18.186 4.735 22.534 6.173.62.285 1.714-.136 1.528-1.016zm-5.25 7.14c-4.97-3.818-14.907.112-16.248 6.1-.03.18-.013.362.05.532a1.04 1.04 0 0 0 .309.438 1.05 1.05 0 0 0 .486.226c.18.032.363.017.534-.043 2.485-1.054 4.435-3.037 6.957-4.054s5.093-1.004 7.652-1.673a.91.91 0 0 0 .56-.689.92.92 0 0 0-.04-.457c-.052-.157-.142-.277-.26-.38zm-2.3 8.628c-4.348.16-10.373 5.243-8.447 9.916a.76.76 0 0 0 .225.292.75.75 0 0 0 .336.152c.123.022.25.013.368-.025s.226-.106.313-.196c1.242-1.624 2-3.557 3.366-5.12a47.98 47.98 0 0 0 4-4.673c.018-.033.03-.07.03-.107s-.006-.074-.022-.108-.04-.064-.07-.087-.064-.038-.1-.045zm108.098-24.37c-1.44-3.72-6.373-3.05-9.43-2.243-2.807.744-8.025 2.578-8.422 6a1.14 1.14 0 0 0 .403 1.041c.15.125.33.208.524.243a1.14 1.14 0 0 0 .576-.044c2.385-.744 4.472-2.293 6.93-3.012a12.36 12.36 0 0 1 7.59.136c1.218.4 2.236-1.066 1.827-2.12zm-1.7 13.336c-2.223-4.6-12.422-5.85-13.764 0a.47.47 0 0 0 .032.27c.037.084.1.158.177.208s.17.076.263.075.184-.03.26-.083c2.808-2.082 6.5-.73 9.23.78.832.46 2.248 1.512 3.267 1.078s.944-1.512.534-2.33zm-3.157 10.164c-1.888-4.623-9.6-5.528-13.788-4.586-.597.136-.398.967.087 1.1a46.59 46.59 0 0 1 7.08 2.206 30.92 30.92 0 0 0 5.826 2.231c.124.023.25.014.37-.028a.71.71 0 0 0 .304-.211.7.7 0 0 0 .156-.335.71.71 0 0 0-.035-.368z"/></g><defs><clipPath id="A"><path fill="#fff" d="M0 0h150v158H0z"/></clipPath></defs></svg>
